symbols/web/phone_in_talk/materialsymbolssharp/phone_in_talk_wght500gradN25_40px.svg

<svg xmlns="http://www.w3.org/2000/svg" height="40" width="40"><path d="M32.208 19.375q-.166-4.917-3.604-8.354-3.437-3.438-8.312-3.604v-2.75q3 .083 5.646 1.25 2.645 1.166 4.624 3.166 1.98 2 3.167 4.646 1.188 2.646 1.271 5.646Zm-7 0q-.166-2-1.562-3.396-1.396-1.396-3.354-1.521v-2.791q3.125.166 5.333 2.375Q27.833 16.25 28 19.375Zm7.709 15.583q-5.125.042-10.125-2.416-5-2.459-8.98-6.417-3.979-3.958-6.416-8.979-2.438-5.021-2.438-10.104 0-.5.021-1.063.021-.562.104-1.021h9.5l1.75 8.209-5 4.875q2.084 3.458 4.729 6.083 2.646 2.625 5.98 4.542l5.041-5.084L35 25.333v9.5q-.458.042-1.042.084-.583.041-1.041.041ZM9.833 15.292 13 12.167l-.875-4.209H8q0 1.584.479 3.396.479 1.813 1.354 3.938Zm15.042 14.833q1.583.75 3.437 1.208 1.855.459 3.646.584V27.75L28 26.917ZM9.833 15.292Zm15.042 14.833Z"/></svg>

<svg xmlns="http://www.w3.org/2000/svg" height="40" width="40"><path d="M32.208 19.375Q32.042 14.458 28.604 11.021Q25.167 7.583 20.292 7.417V4.667Q23.292 4.75 25.938 5.917Q28.583 7.083 30.562 9.083Q32.542 11.083 33.729 13.729Q34.917 16.375 35 19.375ZM25.208 19.375Q25.042 17.375 23.646 15.979Q22.25 14.583 20.292 14.458V11.667Q23.417 11.833 25.625 14.042Q27.833 16.25 28 19.375ZM32.917 34.958Q27.792 35 22.792 32.542Q17.792 30.083 13.812 26.125Q9.833 22.167 7.396 17.146Q4.958 12.125 4.958 7.042Q4.958 6.542 4.979 5.979Q5 5.417 5.083 4.958H14.583L16.333 13.167L11.333 18.042Q13.417 21.5 16.062 24.125Q18.708 26.75 22.042 28.667L27.083 23.583L35 25.333V34.833Q34.542 34.875 33.958 34.917Q33.375 34.958 32.917 34.958ZM9.833 15.292 13 12.167 12.125 7.958H8Q8 9.542 8.479 11.354Q8.958 13.167 9.833 15.292ZM24.875 30.125Q26.458 30.875 28.312 31.333Q30.167 31.792 31.958 31.917V27.75L28 26.917ZM9.833 15.292Q9.833 15.292 9.833 15.292Q9.833 15.292 9.833 15.292ZM24.875 30.125Q24.875 30.125 24.875 30.125Q24.875 30.125 24.875 30.125Z"/></svg>
